src/assets/images/icons/icon-arrow-right.svg

<?xml version="1.0" encoding="UTF-8"?>
<svg width="14px" height="10px" viewBox="0 0 14 10" version="1.1" xmlns="http://www.w3.org/2000/svg" xmlns:xlink="http://www.w3.org/1999/xlink">
    <!-- Generator: Sketch 52.6 (67491) - http://www.bohemiancoding.com/sketch -->
    <title>icon-arrow-right</title>
    <desc>Created with Sketch.</desc>
    <g id="Page-1" stroke="none" stroke-width="1" fill="none" fill-rule="evenodd">
        <g id="icon-arrow-right" fill="#112094">
            <path d="M14,5 C14,5.01 13.995,5.017 13.995,5.027 C13.9982181,5.28469977 13.897254,5.53278304 13.715,5.715 C13.652,5.778 13.576,5.814 13.502,5.855 L9.642,9.715 C9.2672748,10.0897252 8.6597252,10.0897252 8.285,9.715 C7.9102748,9.3402748 7.9102748,8.7327252 8.285,8.358 L10.642,6 L1,6 C0.44771525,6 6.76353751e-17,5.55228475 0,5 C-6.76353751e-17,4.44771525 0.44771525,4 1,4 L10.642,4 L8.285,1.642 C8.04259529,1.3995953 7.94792547,1.04628274 8.03665175,0.715151756 C8.12537803,0.384020769 8.38402077,0.125378026 8.71515176,0.0366517475 C9.04628274,-0.0520745306 9.3995953,0.0425952887 9.642,0.285 L13.498,4.141 C13.574,4.183 13.651,4.221 13.715,4.285 C13.8978906,4.46835532 13.9985684,4.7180651 13.994,4.977 C13.994,4.986 14,4.992 14,5 Z" id="Path"></path>
        </g>
    </g>
</svg>

<svg xmlns="http://www.w3.org/2000/svg" width="14" height="10">
    <path fill="#5C34A2" fill-rule="evenodd" d="M14 5c0 .01-.005.017-.005.027a.956.956 0 0 1-.28.688c-.063.063-.139.099-.213.14l-3.86 3.86a.959.959 0 1 1-1.357-1.357L10.642 6H1a1 1 0 0 1 0-2h9.642L8.285 1.642A.959.959 0 1 1 9.642.285l3.856 3.856c.076.042.153.08.217.144a.956.956 0 0 1 .279.692c0 .009.006.015.006.023z"/>
</svg>
